X: 1
T: An Boithrin Cam
M: 6/8
L: 1/8
R: jig
K: Ador
G|EAA A2B|c2d e/f/ge|dBA B2A|GAG E2D|
EAA A2B|c2d e2f|gfe dBA|B2A A2:|
g|a2g efg|a2g e2f|gfe def|~g3 bag|
a2g efg|a2g e2f|gfe dBA|B2A A2:|
